X: 30473
T: Old Wife Of Coverdale, The
R: slip jig
M: 9/8
K: Aminor
ABA c2e edc|BAB G2B BGE|ABA c2e edc|BAB GAB A3:|
|:agf edc B3|g3 B3 e2g|agf edc B2B|GAB A3 A3:|

